rospo-icon-theme-classic-common/64x64/apps/openbox.svg

<svg height="64" width="64" xmlns="http://www.w3.org/2000/svg"><rect height="56" opacity=".2" rx="2.778" ry="2.8" transform="matrix(0 -1 -1 0 0 0)" width="50" x="-58" y="-60"/><rect fill="#5489cd" height="56" rx="2.778" ry="2.8" transform="matrix(0 -1 -1 0 0 0)" width="50" x="-57" y="-60"/><path d="m4 22h56v30h-56z" opacity=".2"/><path d="m4 21h56v30h-56z" fill="#e4e4e4"/><path d="m16 51h3v6h-3z" opacity=".2"/><path d="m45 51h3v6h-3z" opacity=".2"/><path d="m6.8007812 7c-1.5512 0-2.8007812 1.238455-2.8007812 2.7773438v1.0000002c0-1.5388892 1.2495812-2.777344 2.8007812-2.777344h50.3984378c1.5512 0 2.800781 1.2384548 2.800781 2.777344v-1.0000002c0-1.5388889-1.249581-2.7773438-2.800781-2.7773438z" fill="#fff" opacity=".2"/><path d="m4 21v2h .109375v-1.109375h55.890625v-.890625z" fill="#fff" opacity=".2"/></svg>

<svg xmlns="http://www.w3.org/2000/svg" width="64" height="64" version="1">
 <rect style="opacity:0.2" width="50" height="56" x="-58" y="-60" rx="2.778" ry="2.8" transform="matrix(0,-1,-1,0,0,0)"/>
 <rect width="50" height="56" x="-57" y="-60" rx="2.778" ry="2.8" transform="matrix(0,-1,-1,0,0,0)" style="fill:#5489cd"/>
 <rect width="56" height="30" x="4" y="22" style="opacity:0.2"/>
 <rect style="fill:#cccccc" width="56" height="30" x="4" y="21"/>
 <rect style="opacity:0.2" width="3" height="6" x="16" y="51"/>
 <rect width="3" height="6" x="45" y="51" style="opacity:0.2"/>
 <path style="opacity:0.2;fill:#ffffff" d="M 6.8007812 7 C 5.2495812 7 4 8.238455 4 9.7773438 L 4 10.777344 C 4 9.2384548 5.2495812 8 6.8007812 8 L 57.199219 8 C 58.750419 8 60 9.2384548 60 10.777344 L 60 9.7773438 C 60 8.2384549 58.750419 7 57.199219 7 L 6.8007812 7 z"/>
 <path style="opacity:0.2;fill:#ffffff" d="M 4 21 L 4 23 L 4.109375 23 L 4.109375 21.890625 L 60 21.890625 L 60 21 L 4 21 z"/>
</svg>
